!!!!SEGMENT: pl-sa--600-a-ix-80--003_anonim--rondo.krn
!!!cenid: 18xx:668
!!!COM: Anonim
!!!COM-rismID: pe30004985
!!!CDT:
!!!CNT:
!!!OTL: Rondo
!!!PDT:
!!!AGN: Secular; Rondo
!!!YEC: Copyright 2022 Narodowy Instytut Fryderyka Chopina (https://polishscores.org)
!!!YEM: License CC-BY-4.0 (https://creativecommons.org/licenses/by/4.0)
!!!SMS-siglum: PL-SA
!!!SMS-shelfmark: 600/A IX 80
!!!SMS-shelfwork: 003 W
!!!SMS-variant:
!!!SMS-altvar:
!!!NIFC-rismSourceID: 1001065561
!!!NIFC-rismChildID: 1001065561
!!!NIFC-islandoraID: none
!!!URL-pdf-islandora:
!!!URL-scan: https://bc.bdsandomierz.pl/dlibra/publication/1408/edition/1376/content @EN{Scan in the Sandomierz Diocese Digital Library} @PL{Skany w portalu Cyfrowa Biblioteka Diecezjalna w Sandomierzu}
!!!IIIF:
!!!ONB-nifc: Str. 2 (s. 2) – str. 3 (s. 1)
!!!AIN: 2 piano
!!!key:
**kern	**kern
*group1	*group1
*part2	*part1
*staff2	*staff1
*Ipiano	*Ipiano
*I"Piano	*I"Piano
*clefF4	*clefG2
*k[]	*k[]
*C:	*C:
*M3/8	*M3/8
=1	=1
8C\L	16gg\LL
.	16aa\JJ
8E\	8bb\L
8G\J	8ccc\J
=2	=2
*rep	*
8C\L	4gg\
8E\	.
8G\J	8ee\
*Xrep	*
=3	=3
8C\L	16dd\LL
.	16cc#X\
8F\	16dd\
.	16ee\
8G\J	16ff\
.	16dd\JJ
=4	=4
8C\L	8gg\L
8E\	8ee\
8G\J	8cc\J
=5	=5
*rep	*
8C\L	16gg\LL
.	16aa\JJ
8E\	8bb\L
8G\J	8ccc\J
*Xrep	*
=6	=6
*rep	*
8C\L	4gg\
8E\	.
8G\J	8ee\
*Xrep	*
=7	=7
8F\	16dd\LL
.	16cc#X\
8r	16dd\
.	16ff\
8G\ 8d	16a\
.	16b\JJ
=8	=8
4c\ 4e	4cc\
8r	8r
=9:|!	=9:|!
8BB\L	16gg\LL
.	16ff\JJ
8D\	8dd\L
8G\J	8dd\J
=10	=10
8C\L	16gg\LL
.	16ee\JJ
8E\	8cc\L
8G\J	8cc\J
=11	=11
8D\L	16cc\LL
.	16b\
8F\	16a\
.	16g\
8G\J	16a\
.	16b\JJ
!LO:LB:g=original	!LO:LB:g=original
=12	=12
8C\L	16cc\LL
.	16dd\
8E\	16ee\
.	16ff\
8G\J	16ff#X\
.	16gg\JJ
=13	=13
8BB\L	16aa\LL
.	16gg\JJ
8D\	8ffn\L
8G\J	8dd\J
=14	=14
8C\L	16aa\LL
.	16gg\JJ
8E\	8ee\L
8G\J	8cc\J
=15	=15
8D\L	16cc\LL
.	16b\
8F\	16a\
.	16g\
8G\J	16a\
.	16b\JJ
=16	=16
8C\L	4cc\
8E\	.
8G\J	8r
=17	=17
16BB\LL	16gg\LL
16G\	16ff\JJ
16D\	8dd\L
16G\	.
16D\	8dd\J
16G\JJ	.
=18	=18
16C\LL	16gg\LL
16G\	16ee\JJ
16E\	8cc\L
16G\	.
16E\	8cc\J
16G\JJ	.
=19	=19
16D\LL	16cc\LL
16G\	16b\
16F\	16a\
16G\	16g\
16F\	16a\
16G\JJ	16b\JJ
=20	=20
16C\LL	16cc\LL
16G\	16dd\
16E\	16ee\
16G\	16ff\
16E\	16ff#X\
16G\JJ	16gg\JJ
=21	=21
16BB\LL	16aa\LL
16G\	16gg\
16D\	16ff#X\
16G\	16gg\
16D\	16ffn\
16G\JJ	16dd\JJ
!LO:LB:g=original	!LO:LB:g=original
=22	=22
16C\LL	16ff\LL
16G\	16ee\
16E\	16dd\
16G\	16cc\
16E\	16aa\
16G\JJ	16gg\JJ
=23	=23
16D\LL	16ff#X\LL
16c\	16ee\
16F#X\	16dd\
16c\	16cc\
16F#\	16b\
16c\JJ	16a\JJ
=24	=24
!	!LO:TX:a:t=P:problem=znak początku repetycji
8G\ 8B	8g/
8r	16g/LL
.	16a/
8G\ 8c	16f#X/
.	16a/JJ
=25	=25
*rep	*
8G\ 8B	8g/
8r	16g/LL
.	16a/
8G\ 8c	16f#X/
!	!LO:TX:a:t=P:problem=znak końca repetycji
.	16a/JJ
*Xrep	*
=26	=26
!	!LO:TX:a:t=P:problem=powtórzenie tt. 24-25 oznaczone znakami repetycji
8G\ 8Byy	8g/yy
8ryy	16g/LLyy
.	16a/yy
8G\ 8cyy	16f#X/yy
.	16a/JJyy
=27	=27
*rep	*
8G\ 8Byy	8g/yy
8ryy	16g/LLyy
.	16a/yy
8G\ 8cyy	16f#X/yy
.	16a/JJyy
*Xrep	*
=28	=28
8G\ 8B	8g/
8r	16g/LL
.	16b/
8r	16a/
.	16cc/JJ
=29	=29
8G\ 8d	8b\
8r	16b\LL
.	16dd\
8r	16cc\
.	16ee\JJ
=30	=30
8G\ 8B	8dd\
8r	16dd\LL
.	16ff\
8r	16ee\
.	16gg\JJ
=31	=31
4.G\ 4.d	4ff\
.	8dd\
=32	=32
4G;\ 4d	4b;\
8r	8r
=33	=33
8C\L	16gg\LL
.	16aa\JJ
8E\	8bb\L
8G\J	8ccc\J
!LO:LB:g=original	!LO:LB:g=original
=34	=34
*rep	*
8C\L	4gg\
8E\	.
8G\J	8ee\
*Xrep	*
=35	=35
8C\L	16dd\LL
.	16cc#X\
8F\	16dd\
.	16ee\
8G\J	16ff\
.	16dd\JJ
=36	=36
8C\L	8gg\L
8E\	8ee\
8G\J	8cc\J
=37	=37
*rep	*
8C\L	16gg\LL
.	16aa\JJ
8E\	8bb\L
8G\J	8ccc\J
*Xrep	*
=38	=38
*rep	*
8C\L	4gg\
8E\	.
8G\J	8ee\
*Xrep	*
=39	=39
8F\L	16dd\LL
.	16cc#X\
8D\	16dd\
.	16ff\
8G\J	16a\
.	16b\JJ
=40	=40
8C\L	4cc\
8c\	.
8B\J	8r
=41	=41
4.A\	16ccc\LL
.	16bb\
.	16aa\
.	16gg\
.	16ff\
.	16ee\JJ
=42	=42
4.F\ 4.A	16ee\LL
.	16dd\
.	16cc#X\
.	16dd\
.	16ee\
.	16dd\JJ
=43	=43
4.G\ 4.B	16aa\LL
.	16gg\
.	16ff#X\
.	16gg\
.	16ffn\
.	16dd\JJ
!LO:PB:g=original	!LO:PB:g=original
=44	=44
8c\L	16ff\LL
.	16ee\
8C\J	16dd#X\
.	16ee\
8r	16ddn\
.	16cc\JJ
=45	=45
8A\L 8c	16ccc\LL
.	16bb\
8A\ 8c	16aa\
.	16gg\
8A\J 8c	16ff\
.	16ee\JJ
=46	=46
4F\ 4d	16ee\LL
.	16dd\
.	16cc#X\
.	16dd\
8r	16ee\
.	16dd\JJ
=47	=47
8G\L 8B 8f	16aa\LL
.	16gg\
8G\ 8B 8f	16ff#X\
.	16gg\
8G\J 8B 8f	16ffn\
.	16dd\JJ
=48	=48
4c\ 4e	4cc\
!LO:TX:a:t=P:problem=brak pauzy ósemkowej	!
8ryy	8r
=49	=49
4.GG/ 4.D	16a/LL
.	16g/
.	16f#X/
.	16g/JJ
.	16fn/LL
.	16d/JJ
=50	=50
4C/ 4E	4c/
8r	8r
=51	=51
8C\L 8E 8G	8cc\L
8C\ 8E 8G	8ee\
8C\J 8E 8G	8gg\J
=52	=52
4.C;\ 4.E 4.G	4.ccc;\
==	==
*-	*-
!!!system-decoration: [(g1)]
!!!ENC: Anna Matuszewska
!!!END: 2020-11-24
!!!ENC: Andrzej Kubiczek
!!!END: 2020-06-20
